texon.svg

<svg viewBox="0 0 24 24" xmlns="http://www.w3.org/2000/svg"><path d="M22.8997 7.43562C23.8022 6.57186 24.3762 5.29836 23.7118 4.12453C22.8923 2.65908 21.1408 2.00572 19.4668 2.04632C18.6141 0.40923 16.667 0.569802 16.1723 2.30471C14.8435 2.29179 14.3728 3.32536 14.6958 4.50288C13.4389 4.47151 12.9037 5.37403 13.2894 6.55156C12.5401 6.49803 11.7889 6.74535 11.7631 7.38579C11.4455 7.06378 10.995 6.90995 10.5468 6.97052C9.98123 7.06147 9.51587 7.46464 9.34526 8.01147C9.06473 7.6977 8.71221 7.47069 8.27479 7.59066C7.78015 7.72724 7.57713 8.19972 7.507 8.69805C7.06035 8.30677 6.54541 8.1868 6.14675 8.4618C6.08215 7.94687 5.67057 7.50391 5.14641 7.23445C5.46202 6.96314 5.7001 6.61984 5.59121 6.19719C5.48601 5.81699 5.16671 5.59551 4.80866 5.45893C5.36235 4.90524 5.56353 4.13929 4.85849 3.45271C4.30479 2.92301 3.56653 3.01898 3.1974 3.53761C2.84362 3.31271 2.40844 3.25594 2.0088 3.38257C-0.0693982 3.89013-0.0343307 7.04619 0.0136563 8.70543C0.105939 11.9169 2.27642 14.4491 5.3439 15.2981C5.38547 15.3094 5.42981 15.3041 5.46755 15.2833C5.4491 16.1951 5.58937 17.2323 5.89759 17.7473C6.39776 18.5741 6.83334 19.054 6.24088 20.0876C5.99541 20.5139 5.60967 20.7077 5.39557 21.0731C4.9397 21.8502 6.57494 22.5035 7.01975 22.6825C8.56271 23.3045 12.3998 23.3507 13.8154 21.9018C14.4356 22.271 15.7165 22.2064 16.272 22.2193C17.4145 22.2451 18.3151 21.996 18.9777 21.0381C20.2401 19.2146 17.1321 18.707 15.7017 18.8233C15.6012 18.4174 15.5693 17.9976 15.6076 17.5812C16.2957 17.2325 16.8241 16.6335 17.0841 15.9072C17.1909 15.6374 17.2742 15.3589 17.3332 15.0748C17.3978 15.0748 17.4624 15.0932 17.5289 15.1061C17.6858 15.5989 18.0032 16.1139 18.5735 16.1028C19.1438 16.0917 19.4963 15.5897 19.6809 15.1301C19.8982 14.6039 19.8097 14.001 19.4502 13.5595C19.0017 13.0058 18.1841 12.967 17.5123 13.0538C17.5123 11.9464 17.4274 10.8224 17.623 9.75007C19.3118 10.5419 22.0267 10.1746 22.0157 8.08898C22.1348 8.02338 22.2506 7.95193 22.3626 7.87489C22.3787 7.93308 22.3978 7.99037 22.4199 8.04653C22.298 8.50056 22.9939 8.85862 23.2744 8.38613C23.387 8.20157 23.4793 8.00224 23.3519 7.7863C23.2313 7.635 23.0763 7.51477 22.8997 7.43562ZM18.6437 2.12015C18.2349 2.18627 17.8353 2.30025 17.4532 2.45975C17.2186 2.5635 16.9932 2.68699 16.7795 2.82888C16.7795 2.81411 16.7962 2.80489 16.7998 2.78827C17.0176 1.56645 17.9755 1.31914 18.6437 2.12015ZM16.3532 3.0319C16.3931 3.03562 16.4333 3.03562 16.4732 3.0319C16.0425 3.35695 15.656 3.73665 15.3233 4.16144C15.1609 3.55976 15.2071 2.86948 16.3532 3.0319ZM14.6091 5.21346C14.3765 5.60474 14.1643 6.01263 13.9705 6.42605C13.7305 5.7487 13.9151 5.23561 14.6091 5.21346ZM13.6032 7.24368C13.4315 7.65341 13.271 8.05945 13.1196 8.45073C12.8526 8.30049 12.5697 8.1804 12.2762 8.09267C12.2919 8.06 12.2977 8.02341 12.2928 7.98747C12.6619 7.29535 13.0993 7.04988 13.6032 7.24737L13.6032 7.24368ZM11.1337 7.98194C10.8969 8.01507 10.6658 8.08091 10.4471 8.17757C10.3013 8.24217 10.1481 8.31415 9.99124 8.38798C10.2035 7.74016 10.6631 7.67187 11.1337 7.98747L11.1337 7.98194ZM8.19358 8.66667C8.62915 8.50979 8.93184 8.56147 9.11641 8.81063C8.79526 8.96013 8.46674 9.10594 8.13452 9.23513C8.1386 9.04435 8.15835 8.85422 8.19358 8.66667ZM6.16336 9.11701C6.61924 8.25509 7.1434 9.00258 7.40364 9.48614C6.92677 9.63675 6.42205 9.67776 5.92712 9.60611C5.99625 9.4386 6.07513 9.27529 6.16336 9.11701ZM5.28114 9.07641C5.24898 9.15229 5.24313 9.23675 5.26453 9.31634C4.85849 9.03211 4.52627 8.54486 4.34171 7.75123C4.34257 7.73894 4.34257 7.72661 4.34171 7.71432C5.07074 7.87489 5.64843 8.26801 5.27745 9.07641L5.28114 9.07641ZM4.24573 6.98344C4.21989 6.68813 4.19406 6.35776 4.15899 6.01816C4.24942 6.03846 4.34355 6.05138 4.43214 6.08091C5.09473 6.26179 4.59825 6.74719 4.24573 6.98344ZM4.03533 5.17839C3.96634 4.71491 3.80098 4.27102 3.54992 3.87536C4.20697 3.44533 5.11688 4.41429 4.03533 5.17839ZM17.2096 19.7092C17.553 19.7533 17.8845 19.8637 18.1859 20.034C18.6067 20.2814 18.1435 20.7354 17.9589 20.9679C17.5123 21.5327 16.272 21.374 15.6537 21.3371C15.3233 21.3149 14.7659 21.1414 14.2971 21.11C14.753 19.6335 13.1676 18.9303 11.7132 18.7845C12.0356 18.4561 12.2688 18.0508 12.3906 17.607C13.378 17.9189 14.3451 18.013 15.1591 17.7694C15.0797 18.2327 15.1332 18.6922 15.0317 19.1629C14.9782 19.3718 15.0998 19.5856 15.3067 19.6464C15.901 19.7849 16.5913 19.6151 17.2096 19.7092ZM17.4957 13.6795C17.9848 13.6573 18.5551 13.6795 18.8817 14.0209C19.0663 14.2184 19.0663 14.5322 18.9685 14.8385C18.9232 14.961 18.8611 15.0765 18.7839 15.1818C18.7581 15.2113 18.7286 15.239 18.699 15.2667L18.6806 15.2852C18.6806 15.2852 18.6806 15.2852 18.6658 15.2852C18.6475 15.297 18.6284 15.3075 18.6086 15.3166L18.5754 15.3276L18.5421 15.3276L18.5071 15.3092C18.5071 15.3092 18.4554 15.263 18.4443 15.2501C18.4332 15.2372 18.4443 15.2501 18.3982 15.1818C18.3698 15.1321 18.3439 15.081 18.3207 15.0286C18.2728 14.9088 18.2346 14.7854 18.2062 14.6595C18.1591 14.4938 18.0093 14.3785 17.8371 14.3753C17.7095 14.3676 17.5825 14.3516 17.4569 14.3273C17.4717 14.1187 17.4864 13.9009 17.4957 13.6795ZM21.8514 7.20492C20.0316 8.42858 18.3982 6.95206 17.5012 5.40725C17.2243 4.93292 16.5507 5.34819 16.7777 5.82991C16.9471 6.18813 17.1544 6.52719 17.396 6.84132C17.3235 6.84249 17.2519 6.85818 17.1856 6.88746C17.0401 6.93871 16.9007 7.0062 16.7703 7.08864C16.1797 7.42455 16.7703 8.23664 17.2686 7.93579L17.2686 7.93579C17.4255 7.82136 17.5732 7.70324 17.7227 7.57958L17.7227 7.57958C17.7876 7.5141 17.8275 7.42786 17.8353 7.33596C17.9497 7.45039 18.0697 7.55928 18.1933 7.66079C18.0901 7.72154 18.0153 7.82092 17.9855 7.93696C17.9557 8.05299 17.9734 8.17611 18.0346 8.27909L18.1767 8.58546C18.3613 8.95459 18.9316 8.77003 18.9316 8.3806C18.9316 8.32154 18.9316 8.26432 18.9316 8.20711C18.9316 8.1868 18.9316 8.16281 18.9316 8.14251C19.6732 8.53828 20.5418 8.62262 21.3457 8.37691C20.5687 9.5895 18.6953 9.55443 17.5381 8.68697C17.3019 8.50241 16.9586 8.70174 16.8866 8.95275C15.9638 12.131 18.0272 18.0684 12.5899 16.782C12.5733 16.782 12.5585 16.782 12.5419 16.782C12.5991 15.9348 12.3574 15.0932 11.7797 14.665C11.4844 14.4491 11.226 14.8496 11.333 15.1098C11.6652 15.8481 11.8646 16.3852 11.6431 17.212C11.4936 17.7657 11.1392 18.3803 10.6022 18.6369C10.5352 18.6681 10.4848 18.7266 10.4637 18.7974C10.3493 18.8144 10.2359 18.8378 10.1241 18.8676C9.61473 19.0152 9.82698 19.7756 10.3419 19.6594C11.0697 19.5131 11.8223 19.5493 12.5327 19.7646C12.9598 19.8735 13.2673 20.2465 13.2926 20.6865C13.3179 21.1266 13.0553 21.5324 12.6434 21.6896C12.0535 21.8931 11.439 22.0173 10.8162 22.0587C9.9855 22.1325 9.14984 22.1325 8.31908 22.0587C7.95632 22.0336 7.59704 21.9718 7.24676 21.8741C6.95699 21.7265 6.68015 21.5585 6.40699 21.3851C7.00314 20.9163 7.90566 19.5671 7.69895 18.9857C7.35565 18.0204 6.63585 17.3505 6.45313 16.2929C6.17998 14.7167 6.26857 13.2937 8.05516 12.7862C8.32831 12.7086 8.28402 12.2454 7.98502 12.2768C6.82595 12.3967 6.03417 12.8637 5.64289 13.9988C5.55046 14.3122 5.49654 14.6357 5.48232 14.9622C2.49421 13.4118 0.829434 11.1232 0.849736 7.8066C0.849736 6.74166 0.995542 5.63611 1.50863 4.68745L3.1568 4.90154C3.25605 5.20861 3.31802 5.5265 3.34136 5.84836C3.40227 6.38545 3.41888 6.92438 3.47794 7.46146C3.60529 8.64822 4.1516 10.014 5.44356 10.337C8.22865 11.031 10.6981 7.93764 13.1362 9.43262C13.57 9.69655 13.9428 9.09486 13.6235 8.77741C15.3159 5.45524 17.5529 1.33206 21.9289 3.53761C23.6509 4.41245 23.2264 6.27286 21.8514 7.20492ZM15.4322 12.8471C14.8951 12.3635 13.9133 12.4466 13.2894 12.692C13.1049 12.764 13.1049 13.0722 13.3393 13.0612C13.8597 13.0316 14.4983 12.9006 14.9117 13.2697C15.1076 13.4481 15.18 13.7252 15.0963 13.9766C15.0844 14.0268 15.069 14.0762 15.0502 14.1243C15.0299 14.1667 14.921 14.3347 14.9671 14.2756C14.9445 14.305 14.9198 14.3327 14.8933 14.3587C14.8785 14.3716 14.8767 14.3771 14.8711 14.3808L14.8711 14.3808L14.8195 14.4103L14.7955 14.4103L14.7955 14.4103C14.7955 14.4103 14.7475 14.3956 14.7733 14.4103L14.7733 14.4103L14.7733 14.4103L14.7733 14.4103L14.7733 14.4103L14.7272 14.4103C14.7358 14.4114 14.7444 14.4114 14.753 14.4103L14.7087 14.3845C14.6823 14.3611 14.6576 14.3358 14.6349 14.3088C14.5186 14.1815 14.4282 13.8363 14.2658 13.6665C14.1034 13.4967 13.7545 13.5595 13.7121 13.8105C13.6272 14.3882 14.1532 15.1504 14.7733 15.156C15.279 15.156 15.6242 14.6816 15.7681 14.2498C15.9384 13.7567 15.8073 13.2096 15.4322 12.8471ZM21.7277 5.44601C21.7426 5.22829 21.7314 5.00958 21.6945 4.7945C21.6357 4.61812 21.4707 4.49914 21.2848 4.49914C21.0989 4.49914 20.9338 4.61812 20.875 4.7945C20.8456 4.96631 20.8363 5.14099 20.8474 5.31497C20.8474 5.61766 20.8031 5.88528 20.9507 6.15843C20.9507 6.17689 20.9784 6.18427 20.9913 6.19904C20.9904 6.20516 20.9904 6.21137 20.9913 6.21749C21.0356 6.50726 21.5321 6.50726 21.5745 6.21749C21.5745 6.21749 21.5745 6.20457 21.5745 6.19904C21.5745 6.1935 21.6041 6.17689 21.6133 6.15843C21.7204 5.93728 21.7602 5.68957 21.7277 5.44601ZM20.349 5.08426C20.3 4.95937 20.2019 4.86 20.0777 4.80926C20.0246 4.65757 19.8794 4.55771 19.7187 4.56235C19.558 4.56698 19.4188 4.67506 19.3745 4.82956L19.3745 4.85725C19.3745 4.85725 19.3745 4.86832 19.3745 4.87571C19.3124 5.29287 19.2871 5.71468 19.2989 6.13628C19.2804 6.70659 20.1331 6.68998 20.1774 6.13628C20.1903 5.86128 20.4727 5.39802 20.349 5.08426Z" fill="#040000"/></svg>

<svg viewBox="0 0 24 24" xmlns="http://www.w3.org/2000/svg"><path d="M22.9 7.436c.902-.864 1.476-2.138.812-3.311-.82-1.466-2.571-2.12-4.245-2.079-.853-1.637-2.8-1.476-3.295.259-1.329-.013-1.8 1.02-1.476 2.198-1.257-.031-1.792.871-1.407 2.049-.749-.054-1.5.193-1.526.834a1.438 1.438 0 0 0-1.216-.415 1.51 1.51 0 0 0-1.202 1.04c-.28-.313-.633-.54-1.07-.42-.495.136-.698.609-.768 1.107-.447-.391-.962-.511-1.36-.236-.065-.515-.476-.958-1-1.228.315-.27.553-.614.444-1.037-.105-.38-.424-.601-.782-.738.553-.554.755-1.32.05-2.006-.554-.53-1.292-.434-1.662.085a1.417 1.417 0 0 0-1.188-.155C-.07 3.89-.034 7.046.014 8.705c.092 3.212 2.262 5.744 5.33 6.593a.166.166 0 0 0 .124-.015c-.019.912.121 1.95.43 2.464.5.827.935 1.307.343 2.34-.246.427-.631.62-.845.986-.456.777 1.179 1.43 1.624 1.61 1.543.622 5.38.668 6.795-.781.62.369 1.902.304 2.457.317 1.143.026 2.043-.223 2.706-1.18 1.262-1.824-1.846-2.332-3.276-2.216a3.742 3.742 0 0 1-.094-1.242 3.016 3.016 0 0 0 1.476-1.674c.107-.27.19-.548.25-.832.064 0 .128.018.195.031.157.493.474 1.008 1.044.997.57-.011.923-.513 1.108-.973a1.55 1.55 0 0 0-.23-1.57c-.45-.554-1.267-.593-1.939-.506 0-1.108-.085-2.232.111-3.304 1.689.792 4.404.425 4.393-1.661.119-.066.235-.137.347-.214.016.058.035.115.057.172-.122.454.574.812.854.34.113-.185.205-.385.078-.6a1.212 1.212 0 0 0-.452-.351ZM18.644 2.12c-.41.066-.809.18-1.19.34-.235.103-.46.227-.675.369 0-.015.017-.024.02-.04.219-1.223 1.177-1.47 1.845-.669Zm-2.29.912c.04.004.08.004.12 0a6.22 6.22 0 0 0-1.15 1.13c-.163-.602-.117-1.293 1.03-1.13Zm-1.745 2.181c-.232.392-.445.8-.639 1.213-.24-.677-.055-1.19.64-1.213Zm-1.006 2.03c-.171.41-.332.816-.483 1.208-.267-.15-.55-.27-.844-.358a.185.185 0 0 0 .017-.106c.369-.692.806-.937 1.31-.74v-.003Zm-2.47.739a2.584 2.584 0 0 0-.686.196c-.146.064-.299.136-.456.21.213-.648.672-.716 1.143-.4v-.006Zm-2.94.685c.436-.157.739-.106.923.144-.32.15-.65.295-.981.424.004-.19.023-.38.059-.568Zm-2.03.45c.456-.862.98-.114 1.24.37-.476.15-.981.19-1.476.12.07-.168.148-.332.236-.49Zm-.882-.04a.37.37 0 0 0-.016.24c-.407-.285-.739-.772-.923-1.566v-.037c.729.16 1.306.554.935 1.362h.004ZM4.246 6.982c-.026-.295-.052-.625-.087-.965.09.02.185.033.273.063.663.18.166.666-.186.902Zm-.21-1.805a3.354 3.354 0 0 0-.486-1.303c.657-.43 1.567.54.485 1.303ZM17.21 19.71c.343.044.674.155.976.325.42.247-.043.701-.227.934-.447.565-1.687.406-2.305.37-.33-.023-.888-.197-1.357-.228.456-1.476-1.13-2.18-2.584-2.325.323-.329.556-.734.678-1.178.987.312 1.954.406 2.768.162-.08.464-.026.923-.127 1.394a.4.4 0 0 0 .275.483c.594.139 1.284-.03 1.903.063Zm.286-6.03c.489-.022 1.06 0 1.386.342.184.197.184.511.086.817a1.404 1.404 0 0 1-.184.344c-.026.03-.055.057-.085.085l-.018.018h-.015a.46.46 0 0 1-.057.032l-.034.01h-.033l-.035-.018s-.052-.046-.063-.059l-.046-.068c-.028-.05-.054-.101-.077-.153a2.44 2.44 0 0 1-.115-.37.391.391 0 0 0-.369-.284 2.93 2.93 0 0 1-.38-.048c.015-.208.03-.426.039-.647Zm4.355-6.474c-1.82 1.224-3.453-.253-4.35-1.798-.277-.474-.95-.059-.723.423.17.358.376.697.618 1.011a.543.543 0 0 0-.21.046 2.055 2.055 0 0 0-.416.202c-.59.336 0 1.148.499.847.157-.115.304-.233.454-.356a.393.393 0 0 0 .112-.244c.115.114.235.223.358.325a.45.45 0 0 0-.158.618l.142.306c.184.37.755.185.755-.204v-.238c.741.395 1.61.48 2.414.234-.777 1.212-2.65 1.177-3.808.31-.236-.185-.58.015-.651.266-.923 3.178 1.14 9.115-4.297 7.829h-.048c.057-.847-.185-1.689-.762-2.117-.296-.216-.554.185-.447.445.332.738.532 1.275.31 2.102-.15.554-.504 1.168-1.04 1.425a.258.258 0 0 0-.14.16c-.114.017-.227.04-.339.07-.51.148-.297.909.218.792a4.497 4.497 0 0 1 2.19.106 1.011 1.011 0 0 1 .111 1.925 7.034 7.034 0 0 1-1.827.369 14.11 14.11 0 0 1-2.497 0 5.371 5.371 0 0 1-1.072-.185c-.29-.147-.567-.316-.84-.489.596-.469 1.499-1.818 1.292-2.4-.343-.965-1.063-1.634-1.246-2.692-.273-1.576-.184-3 1.602-3.507.273-.077.229-.54-.07-.51-1.16.12-1.95.588-2.342 1.723a4.025 4.025 0 0 0-.16.963C2.493 13.412.828 11.123.85 7.807c0-1.065.146-2.17.659-3.12l1.648.215c.1.307.161.625.184.946.061.537.078 1.076.137 1.613.127 1.187.674 2.553 1.966 2.876 2.785.694 5.254-2.4 7.692-.904.434.264.807-.338.488-.656 1.692-3.322 3.929-7.445 8.305-5.24 1.722.875 1.297 2.736-.078 3.668Zm-6.419 5.642c-.537-.483-1.519-.4-2.143-.155-.184.072-.184.38.05.37.52-.03 1.16-.161 1.573.208a.67.67 0 0 1 .184.707c-.012.05-.027.1-.046.147-.02.043-.129.21-.083.152a.797.797 0 0 1-.074.083c-.014.013-.016.018-.022.022l-.052.03h-.024s-.047-.015-.022 0h-.046a.101.101 0 0 0 .026 0l-.044-.027a.723.723 0 0 1-.074-.075c-.116-.127-.207-.473-.37-.643-.162-.17-.51-.107-.553.144-.085.578.441 1.34 1.061 1.346.506 0 .851-.474.995-.906.17-.493.04-1.04-.336-1.403Zm6.296-7.401a2.745 2.745 0 0 0-.034-.651.432.432 0 0 0-.819 0 2.24 2.24 0 0 0-.028.52c0 .303-.044.57.104.843 0 .019.027.026.04.041v.018c.045.29.541.29.584 0V6.2c0-.005.03-.022.038-.04.107-.222.147-.47.115-.713Zm-1.379-.362a.49.49 0 0 0-.271-.275.369.369 0 0 0-.703.02v.047a7.194 7.194 0 0 0-.076 1.26c-.019.57.834.554.878 0 .013-.275.296-.738.172-1.052Z" fill="#040000"/></svg>
